lib/brands/icons/facebook-messenger.svg

<svg xmlns="http://www.w3.org/2000/svg" fill="none" aria-hidden="true" viewBox="0 0 48 48"><g id="facebook-messenger-Icon"><g id="Group 596"><path id="Vector" fill="url(#paint0_radial_94_17527)" d="M24.0002 4C12.7362 4 4.00195 12.2543 4.00195 23.3983C4.00195 29.2278 6.39174 34.2673 10.2814 37.747C10.6064 38.037 10.8064 38.4469 10.8163 38.8869L10.9263 42.4466C10.9613 43.5815 12.1312 44.3214 13.1711 43.8615L17.1408 42.1116C17.4758 41.9616 17.8557 41.9366 18.2107 42.0316C20.0355 42.5316 21.9754 42.8016 24.0002 42.8016C35.2642 42.8016 43.9984 34.5473 43.9984 23.4033C43.9984 12.2593 35.2642 4 24.0002 4Z"/><path id="Vector_2" fill="white" d="M11.9913 29.0728L17.8658 19.7536C18.8007 18.2687 20.8006 17.9037 22.2054 18.9537L26.88 22.4583C27.31 22.7783 27.8999 22.7783 28.3249 22.4533L34.6343 17.6638C35.4743 17.0238 36.5742 18.0337 36.0142 18.9287L30.1347 28.2428C29.1998 29.7277 27.2 30.0927 25.7951 29.0428L21.1205 25.5381C20.6906 25.2181 20.1006 25.2181 19.6757 25.5431L13.3662 30.3326C12.5263 30.9726 11.4264 29.9677 11.9913 29.0728Z"/></g></g><defs><radialGradient id="paint0_radial_94_17527" cx="0" cy="0" r="1" gradientTransform="translate(11.701 43.779) scale(43.5801)" gradientUnits="userSpaceOnUse"><stop stop-color="#0099FF"/><stop offset="0.6098" stop-color="#A033FF"/><stop offset="0.9348" stop-color="#FF5280"/><stop offset="1" stop-color="#FF7061"/></radialGradient></defs></svg>

<svg xmlns="http://www.w3.org/2000/svg" fill="none" aria-hidden="true" viewBox="0 0 48 48"><path fill="url(#a)" d="M24 4C12.736 4 4.002 12.254 4.002 23.398c0 5.83 2.39 10.87 6.28 14.349.324.29.524.7.534 1.14l.11 3.56a1.599 1.599 0 0 0 2.245 1.414l3.97-1.75c.335-.15.715-.174 1.07-.08 1.824.5 3.764.77 5.79.77 11.263 0 19.997-8.254 19.997-19.398S35.264 4 24 4Z"/><path fill="#fff" d="m11.991 29.073 5.875-9.32a3.001 3.001 0 0 1 4.34-.8l4.674 3.505a1.2 1.2 0 0 0 1.445-.005l6.309-4.79c.84-.64 1.94.37 1.38 1.266l-5.88 9.314a3.001 3.001 0 0 1-4.34.8l-4.674-3.505a1.2 1.2 0 0 0-1.445.005l-6.31 4.79c-.84.64-1.939-.365-1.374-1.26Z"/><defs><radialGradient id="a" cx="0" cy="0" r="1" gradientTransform="translate(11.701 43.779) scale(43.5801)" gradientUnits="userSpaceOnUse"><stop stop-color="#09F"/><stop offset=".61" stop-color="#A033FF"/><stop offset=".935" stop-color="#FF5280"/><stop offset="1" stop-color="#FF7061"/></radialGradient></defs></svg>
